assets/icons/utility/screen.svg

<?xml version="1.0"?><svg xmlns="http://www.w3.org/2000/svg" width="52" height="52" viewBox="0 0 52 52"><path fill="#fff" d="m50 6c0-2.2-1.8-4-4-4h-40c-2.2 0-4 1.8-4 4v27.7c0 2.2 1.8 4 4 4h40c2.2 0 4-1.8 4-4v-27.7z m-6 24.2c0 0.8-0.7 1.5-1.5 1.5h-33c-0.8 0-1.5-0.7-1.5-1.5v-20.7c0-0.8 0.7-1.5 1.5-1.5h33c0.8 0 1.5 0.7 1.5 1.5v20.7z m-25 13.8c-2.2 0-4 1.8-4 4v0.5c0 0.8 0.7 1.5 1.5 1.5h19c0.8 0 1.5-0.7 1.5-1.5v-0.5c0-2.2-1.8-4-4-4h-14z m-1-17.3h-4.1c-0.6 0-1-0.5-1-1v-11.7c0-0.6 0.4-1 1-1h4.1c0.5 0 1 0.4 1 1v11.7c0 0.6-0.5 1-1 1z m20.1 0h-13.3c-0.6 0-1-0.4-1-1v-11.7c0-0.6 0.4-1 1-1h13.3c0.5 0 1 0.4 1 1v11.7c0 0.6-0.5 1-1 1z"></path></svg>

<svg xmlns="http://www.w3.org/2000/svg" x="0px" y="0px"
	 width="52px" height="52px" viewBox="0 0 52 52" enable-background="new 0 0 52 52" xml:space="preserve">
<g>
	<path fill="#FFFFFF" d="M50,6c0-2.2-1.8-4-4-4H6C3.8,2,2,3.8,2,6v27.7c0,2.2,1.8,4,4,4h40c2.2,0,4-1.8,4-4V6z M44,30.2
		c0,0.8-0.7,1.5-1.5,1.5h-33C8.7,31.7,8,31,8,30.2V9.5C8,8.7,8.7,8,9.5,8h33C43.3,8,44,8.7,44,9.5V30.2z M19,44c-2.2,0-4,1.8-4,4
		v0.5c0,0.8,0.7,1.5,1.5,1.5h19c0.8,0,1.5-0.7,1.5-1.5V48c0-2.2-1.8-4-4-4H19z"/>
</g>
<path fill="#FFFFFF" d="M18,26.7h-4.1c-0.6,0-1-0.5-1-1V14c0-0.6,0.4-1,1-1H18c0.5,0,1,0.4,1,1v11.7C19,26.3,18.5,26.7,18,26.7z"/>
<path fill="#FFFFFF" d="M38.1,26.7H24.8c-0.6,0-1-0.4-1-1V14c0-0.6,0.4-1,1-1h13.3c0.5,0,1,0.4,1,1v11.7
	C39.1,26.3,38.6,26.7,38.1,26.7z"/>
</svg>
